icons/opsee.svg

<?xml version="1.0" encoding="UTF-8" standalone="no"?>
<svg width="512px" height="294px" viewBox="0 0 512 294" version="1.1" xmlns="http://www.w3.org/2000/svg" xmlns:xlink="http://www.w3.org/1999/xlink" preserveAspectRatio="xMidYMid">
	<g>
		<path d="M101.2137,56.8035 C101.2137,32.0435 80.9557,11.7845 56.1947,11.7845 C31.4347,11.7845 11.1767,32.0435 11.1767,56.8035 L11.1767,60.0195 L101.2137,60.0195 L101.2137,56.8035 Z M110.642,57.0064 L110.642,60.2534 L201.553,60.2534 L201.553,57.0064 C201.553,32.0054 181.098,11.5504 156.098,11.5504 C131.097,11.5504 110.642,32.0054 110.642,57.0064 Z M301.4556,57.0075 C301.4556,31.0325 279.7016,10.2535 253.7276,11.5515 C229.3756,12.8505 210.5446,33.9555 210.5446,58.3065 L210.5446,60.2545 L301.4556,60.2545 L301.4556,57.0075 Z M353.6297,11.5519 C329.2787,12.8509 310.4467,33.9549 310.4467,58.3059 L310.4467,60.2539 L401.3577,60.2539 L401.3577,57.0079 C401.3577,31.0329 379.6047,10.2529 353.6297,11.5519 Z M453.5321,11.5519 C429.1811,12.8509 410.3491,33.9549 410.3491,58.3059 L410.3491,60.2539 L501.2601,60.2539 L501.2601,57.0079 C501.2601,31.0329 479.5071,10.2529 453.5321,11.5519 Z" fill="#E53A35"></path>
		<path d="M11.488,113.64 L100.653,113.64 L100.653,59.317 L11.488,59.317 L11.488,113.64 Z M111.39,113.64 L200.805,113.64 L200.805,59.317 L111.39,59.317 L111.39,113.64 Z M273.25,91.9996 L270.128,91.9996 C259.826,91.9996 250.75,85.2286 250.75,74.9266 L250.75,59.3166 L210.75,59.3166 L210.75,103.0236 C210.75,106.4586 212.066,110.2716 213.002,113.0806 L299.831,113.0806 C295.773,102.1546 285.426,91.9996 273.25,91.9996 Z M268.4878,82.4996 L294.7498,82.4996 C298.1838,82.4996 300.9938,78.3606 300.9938,74.9266 L300.9938,59.3166 L260.7498,59.3166 L260.7498,74.9266 C260.7498,78.3606 265.0538,82.4996 268.4878,82.4996 Z M310.945,114 L400.36,114 L400.36,59.317 L310.945,59.317 L310.945,114 Z M410.848,113.39 L500.263,113.39 L500.263,59.317 L410.848,59.317 L410.848,113.39 Z" fill="#F05323"></path>
		<path d="M56.1951,212.9479 C80.9551,212.9479 101.2141,192.6899 101.2141,167.9289 L11.1761,167.9289 C11.1761,192.6899 31.4351,212.9479 56.1951,212.9479 Z M151.7988,221.6581 L151.9998,212.9991 C154.1858,213.3121 154.1138,213.6241 156.2988,213.6241 C180.3378,213.6241 201.7498,192.0381 201.7498,167.9991 L110.9998,167.9991 L110.9998,221.6581 L151.7988,221.6581 Z M254,213.4996 C278.976,214.7486 301.5,192.7256 301.5,167.7496 L210.75,167.7496 C211.374,190.8516 230.898,212.2506 254,213.4996 Z M311.3333,167.8746 C311.9573,190.9766 330.6143,211.6676 353.7173,212.9166 C378.6923,214.1646 400.2503,192.8506 400.2503,167.8746 L311.3333,167.8746 Z M411.5417,167.9996 C412.1657,191.1016 429.4997,213.1246 458.3747,213.2496 C479.9997,213.3746 499.8747,192.9756 499.8747,167.9996 L411.5417,167.9996 Z" fill="#F88C1F"></path>
		<path d="M151.25,262.2435 L151.25,221.6585 L111.25,221.1645 L111.25,261.7495 C111.25,272.0525 120.82,282.4995 131.122,282.4995 C141.424,282.4995 151.25,272.5455 151.25,262.2435" fill="#FCB316"></path>
		<path d="M11.863,168.585 L100.653,168.585 L100.653,112.39 L11.863,112.39 L11.863,168.585 Z M111.25,168.585 L200.75,168.585 L200.75,112.39 L111.25,112.39 L111.25,168.585 Z M250.375,149.8532 C250.375,146.4192 246.946,142.7492 243.512,142.7492 L218.537,142.7492 C215.102,142.7492 211.5,146.4192 211.5,149.8532 L211.5,168.5852 L250.375,168.5852 L250.375,149.8532 Z M300.875,168.5849 L300.875,121.7559 C300.875,118.3219 300.251,115.1999 299.314,112.3899 L213,112.3899 C216.746,123.3169 227.949,131.9999 240.125,131.9999 L243.247,131.9999 C253.549,131.9999 261.5,139.5509 261.5,149.8529 L261.5,168.5849 L300.875,168.5849 Z M393.4756,146.9996 L368.4996,146.9996 C365.0656,146.9996 361.3746,150.5176 361.3746,153.9516 L361.3746,168.6246 L400.2496,168.5846 L400.2496,153.9116 C400.2496,150.4776 396.9096,146.9996 393.4756,146.9996 Z M311.25,112.3898 C311.25,112.3898 311.375,168.2728 311.375,168.5848 L350.5,168.5848 L350.625,155.7498 C350.625,145.4468 358.323,138.3748 368.625,138.3748 L394.375,137.8748 C397.809,137.8748 400.375,134.4338 400.375,130.9998 L400.5,112.3898 L311.25,112.3898 Z M411.25,168.5849 L450.5,168.5849 L450.25,155.8749 C450.25,145.5719 458.573,138.2499 468.875,138.2499 L494.25,137.8749 C497.684,137.8749 500.375,134.5589 500.375,131.1249 L500.25,112.3749 L411.25,112.3899 L411.25,168.5849 Z M494.1311,146.6246 L468.2931,146.6246 C464.8581,146.6246 461.1251,150.4776 461.1251,153.9116 L461.1251,168.5846 L500.3751,168.5846 L500.3751,153.9116 C500.3751,150.4776 497.5651,146.6246 494.1311,146.6246 Z" fill="#ED6D23"></path>
		<path d="M455.8052,-0.0005 C433.9512,-0.0005 415.2192,12.4875 405.8532,30.5945 C396.4882,12.4875 377.7562,-0.0005 355.9022,-0.0005 C334.0492,-0.0005 315.3172,12.4875 305.9512,30.5945 C296.5852,12.4875 277.8532,-0.0005 256.0002,-0.0005 C234.1462,-0.0005 215.4142,12.4875 206.0492,30.5945 C196.6832,12.4875 177.9512,-0.0005 156.0972,-0.0005 C134.2442,-0.0005 115.5122,12.4875 106.1462,30.5945 C96.7802,12.4875 78.0492,-0.0005 56.1952,-0.0005 C25.2882,-0.0005 0.0002,25.2875 0.0002,56.1945 L0.0002,168.5845 C0.0002,199.4925 25.2882,224.7805 56.1952,224.7805 C73.9902,224.7805 89.6002,216.6625 99.9022,203.8625 L99.9022,262.2435 C99.9022,279.4145 113.9512,293.4625 131.1222,293.4625 C148.2922,293.4625 162.3412,279.4145 162.3412,262.2435 L162.3412,224.4675 C181.3852,222.2825 197.6192,210.7315 206.0492,194.1845 C215.4142,212.2925 234.1462,224.7805 256.0002,224.7805 C277.8532,224.7805 296.5852,212.2925 305.9512,194.1845 C315.3172,212.2925 334.0492,224.7805 355.9022,224.7805 C377.7562,224.7805 396.4882,212.2925 405.8532,194.1845 C415.2192,212.2925 433.9512,224.7805 455.8052,224.7805 C486.7122,224.7805 512.0002,199.4925 512.0002,168.5845 L512.0002,56.1945 C512.0002,25.2875 486.7122,-0.0005 455.8052,-0.0005 Z M56.1952,212.2925 C32.1562,212.2925 12.4882,192.6235 12.4882,168.5845 L12.4882,56.1945 C12.4882,32.1555 32.1562,12.4875 56.1952,12.4875 C80.2342,12.4875 99.9022,32.1555 99.9022,56.1945 L99.9022,168.5845 C99.9022,192.6235 80.2342,212.2925 56.1952,212.2925 Z M156.0972,212.2925 C153.9122,212.2925 152.0392,211.9805 149.8532,211.6675 L149.8532,262.2435 C149.8532,272.5455 141.4242,280.9755 131.1222,280.9755 C120.8192,280.9755 112.3902,272.5455 112.3902,262.2435 L112.3902,168.5845 L112.3902,56.1945 C112.3902,32.1555 132.0582,12.4875 156.0972,12.4875 C180.1362,12.4875 199.8052,32.1555 199.8052,56.1945 L199.8052,168.5845 C199.8052,192.6235 180.1362,212.2925 156.0972,212.2925 Z M253.8142,212.2925 C230.4002,211.0435 212.2922,190.7505 212.2922,167.3365 L212.2922,149.8535 C212.2922,146.4195 215.1022,143.6095 218.5362,143.6095 L243.5122,143.6095 C246.9462,143.6095 249.7562,146.4195 249.7562,149.8535 L249.7562,168.2725 C249.7562,171.3945 251.9412,174.2045 255.0632,174.8285 C259.1222,175.4535 262.2442,172.3315 262.2442,168.5845 L262.2442,149.8535 C262.2442,139.5505 253.8142,131.1215 243.5122,131.1215 L240.3902,131.1215 C224.7802,131.1215 212.2922,118.6335 212.2922,103.0235 L212.2922,57.4435 C212.2922,34.0285 230.4002,13.7365 253.8142,12.4875 C278.7902,11.2385 299.7072,31.2195 299.7072,56.1945 L299.7072,74.9265 C299.7072,78.3605 296.8972,81.1705 293.4632,81.1705 L268.4882,81.1705 C265.0532,81.1705 262.2442,78.3605 262.2442,74.9265 L262.2442,56.5065 C262.2442,53.3845 260.0582,50.5755 256.9362,49.9505 C252.8782,49.3265 249.7562,52.4485 249.7562,56.1945 L249.7562,74.9265 C249.7562,85.2285 258.1852,93.6585 268.4882,93.6585 L271.6102,93.6585 C287.2192,93.6585 299.7072,106.1455 299.7072,121.7555 L299.7072,168.5845 C299.7072,193.5605 278.7902,213.5415 253.8142,212.2925 Z M353.7172,212.2925 C330.3022,211.0435 312.1952,190.7505 312.1952,167.3365 L312.1952,57.4435 C312.1952,34.0285 330.3022,13.7365 353.7172,12.4875 C378.6922,11.2385 399.6102,31.2195 399.6102,56.1945 L399.6102,131.1215 C399.6102,134.5555 396.8002,137.3655 393.3662,137.3655 L368.3902,137.3655 C358.0882,137.3655 349.6582,145.7945 349.6582,156.0975 L349.6582,168.2725 C349.6582,171.3945 351.8442,174.2045 354.9662,174.8285 C359.0242,175.4535 362.1462,172.3315 362.1462,168.5845 L362.1462,153.9115 C362.1462,150.4775 364.9562,147.6675 368.3902,147.6675 L393.3662,147.6675 C396.8002,147.6675 399.6102,150.4775 399.6102,153.9115 L399.6102,168.5845 C399.6102,193.5605 378.6922,213.5415 353.7172,212.2925 Z M499.5122,131.1215 C499.5122,134.5555 496.7022,137.3655 493.2682,137.3655 L468.2922,137.3655 C457.9902,137.3655 449.5612,145.7945 449.5612,156.0975 L449.5612,168.2725 C449.5612,171.3945 451.7462,174.2045 454.8682,174.8285 C458.9272,175.4535 462.0492,172.3315 462.0492,168.5845 L462.0492,153.9115 C462.0492,150.4775 464.8582,147.6675 468.2922,147.6675 L493.2682,147.6675 C496.7022,147.6675 499.5122,150.4775 499.5122,153.9115 L499.5122,168.5845 C499.5122,193.5605 478.5952,213.5415 453.6192,212.2925 C430.2052,211.0435 412.0972,190.7505 412.0972,167.3365 L412.0972,57.4435 C412.0972,34.0285 430.2052,13.7365 453.6192,12.4875 C478.5952,11.2385 499.5122,31.2195 499.5122,56.1945 L499.5122,131.1215 Z M156.0976,49.9508 C152.6636,49.9508 149.8536,52.7608 149.8536,56.1948 L149.8536,168.5848 C149.8536,172.0188 152.6636,174.8288 156.0976,174.8288 C159.5316,174.8288 162.3416,172.0188 162.3416,168.5848 L162.3416,56.1948 C162.3416,52.7608 159.5316,49.9508 156.0976,49.9508 Z M455.8049,49.9508 C452.3709,49.9508 449.5609,52.7608 449.5609,56.1948 L449.5609,93.6578 C449.5609,97.0918 452.3709,99.9018 455.8049,99.9018 C459.2389,99.9018 462.0489,97.0918 462.0489,93.6578 L462.0489,56.1948 C462.0489,52.7608 459.2389,49.9508 455.8049,49.9508 M355.9024,99.902 C359.3364,99.902 362.1464,97.092 362.1464,93.658 L362.1464,56.195 C362.1464,52.761 359.3364,49.951 355.9024,49.951 C352.4684,49.951 349.6584,52.761 349.6584,56.195 L349.6584,93.658 C349.6584,97.092 352.4684,99.902 355.9024,99.902 Z M56.1951,49.9508 C52.7611,49.9508 49.9511,52.7608 49.9511,56.1948 L49.9511,168.5848 C49.9511,172.0188 52.7611,174.8288 56.1951,174.8288 C59.6291,174.8288 62.4391,172.0188 62.4391,168.5848 L62.4391,56.1948 C62.4391,52.7608 59.6291,49.9508 56.1951,49.9508 Z" fill="#30302F"></path>
	</g>
</svg>

<svg xmlns="http://www.w3.org/2000/svg" viewBox="0 0 512 293.463">
  <path fill="#e53a35" d="M101.213 56.804c0-24.76-20.257-45.019-45.018-45.019-24.76 0-45.019 20.259-45.019 45.019v3.216h90.038zm9.429.203v3.247h90.91v-3.247c0-25.001-20.454-45.456-45.454-45.456-25.001 0-45.456 20.455-45.456 45.456zm190.813.001c0-25.975-21.754-46.754-47.728-45.456-24.352 1.299-43.183 22.404-43.183 46.755v1.948h90.911zm52.175-45.456c-24.351 1.3-43.183 22.403-43.183 46.754v1.948h90.91v-3.246c0-25.975-21.753-46.755-47.728-45.456zm99.902 0c-24.351 1.3-43.183 22.403-43.183 46.754v1.948h90.91v-3.246c0-25.975-21.752-46.755-47.727-45.456z"/>
  <path fill="#f05323" d="M11.488 113.64h89.165V59.319H11.488zm99.902 0h89.415V59.319H111.39zM273.25 92h-3.122c-10.302 0-19.378-6.77-19.378-17.073v-15.61h-40v43.707c0 3.435 1.316 7.248 2.252 10.057h86.829c-4.058-10.926-14.405-21.08-26.581-21.08zm-4.762-9.5h26.262c3.434 0 6.244-4.139 6.244-7.573v-15.61H260.75v15.61c0 3.434 4.304 7.573 7.738 7.573zm42.457 31.5h89.415V59.319h-89.415zm99.903-.61h89.415V59.319h-89.415z"/>
  <path fill="#f88c1f" d="M56.195 212.948c24.76 0 45.019-20.258 45.019-45.019H11.176c0 24.761 20.259 45.02 45.019 45.02zm95.604 8.71.2-8.658c2.187.313 2.115.625 4.3.625 24.039 0 45.45-21.586 45.45-45.625H111v53.659zm102.2-8.158c24.977 1.25 47.5-20.774 47.5-45.75h-90.75c.625 23.102 20.149 44.501 43.25 45.75zm57.334-45.625c.624 23.102 19.281 43.793 42.384 45.042 24.975 1.248 46.533-20.066 46.533-45.042zm100.208.125c.624 23.102 17.958 45.125 46.833 45.25 21.625.125 41.5-20.274 41.5-45.25z"/>
  <path fill="#fcb316" d="M151.25 262.244v-40.585l-40-.494v40.585c0 10.303 9.57 20.75 19.872 20.75s20.128-9.954 20.128-20.256"/>
  <path fill="#ed6d23" d="M11.863 168.585h88.79V112.39h-88.79zm99.387 0h89.5V112.39h-89.5zm139.125-18.731c0-3.434-3.43-7.104-6.863-7.104h-24.975c-3.435 0-7.037 3.67-7.037 7.104v18.732h38.875zm50.5 18.731v-46.829c0-3.434-.624-6.556-1.561-9.366L213 74.927c3.746 10.927 14.949 19.61 27.125 19.61h3.122c10.302 0 18.253 7.551 18.253 17.853v18.732zm92.6-21.585H368.5c-3.434 0-7.125 3.518-7.125 6.952v14.673l38.875-.04v-14.673c0-3.434-3.34-6.912-6.774-6.912zm-82.225-34.61.125 56.195H350.5l.125-12.835c0-10.303 7.698-17.375 18-17.375l25.75-.5c3.434 0 6-3.44 6-6.875l.125-18.61zm100 56.195h39.25l-.25-12.71c0-10.303 8.323-17.625 18.625-17.625l25.375-.375c3.434 0 6.125-3.316 6.125-6.75l-.125-18.75-89 .015zm82.88-21.96h-25.837c-3.435 0-7.168 3.853-7.168 7.287v14.673h39.25v-14.673c0-3.434-2.81-7.287-6.244-7.287z"/>
  <path fill="#30302f" d="M455.805 0c-21.854 0-40.586 12.488-49.952 30.595C396.488 12.488 377.756 0 355.902 0c-21.853 0-40.585 12.488-49.951 30.595C296.585 12.488 277.853 0 256 0c-21.854 0-40.586 12.488-49.951 30.595C196.683 12.488 177.951 0 156.097 0c-21.853 0-40.585 12.488-49.951 30.595C96.78 12.488 78.049 0 56.195 0 25.288 0 0 25.288 0 56.195v112.39c0 30.908 25.288 56.196 56.195 56.196 17.795 0 33.405-8.118 43.707-20.918v58.381c0 17.171 14.049 31.219 31.22 31.219 17.17 0 31.219-14.048 31.219-31.219v-37.776c19.044-2.185 35.278-13.736 43.708-30.283 9.365 18.108 28.097 30.596 49.951 30.596 21.853 0 40.585-12.488 49.951-30.596 9.366 18.108 28.098 30.596 49.951 30.596 21.854 0 40.586-12.488 49.951-30.596 9.366 18.108 28.098 30.596 49.952 30.596 30.907 0 56.195-25.288 56.195-56.196V56.195C512 25.288 486.712 0 455.805 0zM56.195 212.293c-24.039 0-43.707-19.669-43.707-43.708V56.195c0-24.039 19.668-43.707 43.707-43.707s43.707 19.668 43.707 43.707v112.39c0 24.039-19.668 43.708-43.707 43.708zm99.902 0c-2.185 0-4.058-.312-6.244-.625v50.576c0 10.302-8.429 18.732-18.731 18.732-10.303 0-18.732-8.43-18.732-18.732V56.195c0-24.039 19.668-43.707 43.707-43.707s43.708 19.668 43.708 43.707v112.39c0 24.039-19.669 43.708-43.708 43.708zm97.717 0c-23.414-1.249-41.522-21.542-41.522-44.956v-17.483c0-3.434 2.81-6.244 6.244-6.244h24.976c3.434 0 6.244 2.81 6.244 6.244v18.419c0 3.122 2.185 5.932 5.307 6.556 4.059.625 7.181-2.497 7.181-6.244v-18.731c0-10.303-8.43-18.732-18.732-18.732h-3.122a27.981 27.981 0 0 1-28.098-28.098v-45.58c0-23.415 18.108-43.707 41.522-44.956 24.976-1.249 45.893 18.732 45.893 43.707v18.732c0 3.434-2.81 6.244-6.244 6.244h-24.975c-3.435 0-6.244-2.81-6.244-6.244v-18.42c0-3.122-2.186-5.931-5.308-6.556-4.058-.624-7.18 2.498-7.18 6.244v18.732c0 10.302 8.429 18.732 18.732 18.732h3.122a27.98 27.98 0 0 1 28.097 28.097v46.829c0 24.976-20.917 44.957-45.893 43.708zm99.903 0c-23.415-1.249-41.522-21.542-41.522-44.956V57.444c0-23.415 18.107-43.707 41.522-44.956 24.975-1.249 45.893 18.732 45.893 43.707v74.927c0 3.434-2.81 6.244-6.244 6.244H368.39c-10.302 0-18.732 8.429-18.732 18.732v12.175c0 3.122 2.186 5.932 5.308 6.556 4.058.625 7.18-2.497 7.18-6.244v-14.673c0-3.434 2.81-6.244 6.244-6.244h24.976c3.434 0 6.244 2.81 6.244 6.244v14.673c0 24.976-20.918 44.957-45.893 43.708zm145.795-81.171c0 3.434-2.81 6.244-6.244 6.244h-24.976c-10.302 0-18.731 8.429-18.731 18.732v12.175c0 3.122 2.185 5.932 5.307 6.556 4.059.625 7.181-2.497 7.181-6.244v-14.673c0-3.434 2.809-6.244 6.243-6.244h24.976c3.434 0 6.244 2.81 6.244 6.244v14.673c0 24.976-20.917 44.957-45.893 43.708-23.414-1.249-41.522-21.542-41.522-44.956V57.444c0-23.415 18.108-43.707 41.522-44.956 24.976-1.249 45.893 18.732 45.893 43.707zm-343.415-81.17c-3.434 0-6.244 2.81-6.244 6.243v112.39c0 3.434 2.81 6.244 6.244 6.244 3.434 0 6.244-2.81 6.244-6.244V56.195c0-3.434-2.81-6.244-6.244-6.244zm299.708 0c-3.434 0-6.244 2.81-6.244 6.243v37.463c0 3.434 2.81 6.244 6.244 6.244 3.434 0 6.244-2.81 6.244-6.244V56.195c0-3.434-2.81-6.244-6.244-6.244m-99.903 49.952c3.434 0 6.244-2.81 6.244-6.245V56.197c0-3.434-2.81-6.244-6.244-6.244-3.434 0-6.244 2.81-6.244 6.244v37.463c0 3.433 2.81 6.243 6.244 6.243zM56.195 49.95c-3.434 0-6.244 2.81-6.244 6.244v112.39c0 3.434 2.81 6.244 6.244 6.244 3.434 0 6.244-2.81 6.244-6.244V56.195c0-3.434-2.81-6.244-6.244-6.244z"/>
</svg>
